source/img/team-logo-twitter-mobile.svg

<svg width="18" height="12" viewBox="0 0 18 12" fill="none" xmlns="http://www.w3.org/2000/svg">
<path d="M15.9606 5.335C16.9715 5.25429 17.6573 4.80953 17.9212 4.20606C17.5565 4.42285 16.4245 4.6592 15.7993 4.43411C15.7686 4.29196 15.7344 4.15694 15.7008 4.03504C15.2244 2.34228 13.5934 0.978527 11.8844 1.14328C12.0227 1.08925 12.1629 1.03895 12.3027 0.993795C12.4909 0.928593 13.5945 0.754813 13.4207 0.377812C13.2743 0.046209 11.9258 0.628417 11.6719 0.704514C12.0071 0.582532 12.5614 0.372709 12.6208 0C12.1073 0.0681592 11.6032 0.303091 11.2137 0.644697C11.3543 0.498214 11.461 0.319696 11.4836 0.127571C10.1141 0.974275 9.31406 2.68129 8.66661 4.33716C8.15823 3.86037 7.70764 3.48491 7.30342 3.27642C6.16943 2.68793 4.81356 2.07393 2.68516 1.30932C2.61984 1.99079 3.03343 2.89691 4.22521 3.49948C3.967 3.46603 3.49482 3.54067 3.11717 3.62819C3.27097 4.40888 3.77324 5.05208 5.133 5.36311C4.51158 5.4028 4.19043 5.53964 3.89937 5.83459C4.1824 6.37756 4.87303 7.01659 6.11541 6.88541C4.73414 7.46154 5.5522 8.52848 6.67614 8.36936C4.75878 10.2859 1.73586 10.145 0 8.54205C4.53221 14.5185 14.3842 12.0765 15.8524 6.32005C16.9524 6.32912 17.599 5.95131 18 5.53478C17.3662 5.63886 16.4476 5.5313 15.9606 5.335Z" fill="#8B7EAC" fill-opacity="0.65"/>
</svg>

<svg width="18" height="12" fill="none" xmlns="http://www.w3.org/2000/svg"><path d="M15.96 5.335c1.011-.08 1.697-.525 1.961-1.129-.364.217-1.497.453-2.122.228a7.337 7.337 0 00-.098-.399c-.477-1.693-2.108-3.056-3.817-2.892.139-.054.279-.104.419-.15C12.49.93 13.594.756 13.42.379c-.147-.332-1.495.25-1.75.327.336-.122.89-.332.95-.705a2.716 2.716 0 00-1.407.645.925.925 0 00.27-.517c-1.37.846-2.17 2.553-2.817 4.21-.509-.478-.96-.853-1.364-1.062-1.134-.588-2.49-1.202-4.618-1.967-.065.682.348 1.588 1.54 2.19-.258-.033-.73.042-1.108.13.154.78.656 1.423 2.016 1.734-.621.04-.943.177-1.234.472.283.543.974 1.182 2.216 1.05-1.38.577-.563 1.643.561 1.484-1.917 1.917-4.94 1.776-6.676.173 4.532 5.976 14.384 3.534 15.852-2.222 1.1.01 1.747-.369 2.148-.785-.634.104-1.552-.004-2.04-.2z" fill="#8B7EAC" fill-opacity=".65"/></svg>
